!!!!SEGMENT:44Osanatomodachi_c.krn
!!!OTL: おさな友達
!!!OPR:Eiga Banso Kyokusyu,jidai-geki,zenpen
!!!YOY:1929
!!!ONB:Friend
**kern
*clefG2
*C:
*M2/4
=1
4b
8bL
8aJ
=2
4b
8bL
8aJ
=3
4b
8ccL
8bJ
=4
4a
4b
=5
8f#L
8ee
8ee
8eeJ
=6
8ff#L
8ee
8cc
8bJ
=7
8ff#L
8ee
8cc
8bJ
=8
8f#L
8eeJ
8eeL
8eeJ
=9
4ff#
4r
=10
8f#L
8eeJ
8eeL
8eeJ
=11
8ff#L
8ee
8cc
8bJ
=12
8f#L
8eeJ
8eeL
8eeJ
=13
4ff#
8cc#XL
8bJ
=14
8cc#XL
16cc#L
16cc#JJ
8bL
8gJ
=15
4f#
8gL
8f#J
=16
8gL
16gL
16gJJ
8f#L
8eJ
=17
4f#
4r
=:|!
*-
!!!ENC: Yukiko Yoden
!!!END: 2023/06/11
